Backend/Portfolio2017/Images/svg/instagram-white.svg

<svg xmlns="http://www.w3.org/2000/svg" viewBox="0 0 50 50"><path fill="#fff" d="M15 2C7.832 2 2 7.832 2 15v20c0 7.168 5.832 13 13 13h20c7.168 0 13-5.832 13-13V15c0-7.168-5.832-13-13-13H15zm23 8a2 2 0 1 1 .001 3.999A2 2 0 0 1 38 10zm-13 3c6.617 0 12 5.383 12 12s-5.383 12-12 12-12-5.383-12-12 5.383-12 12-12zm0 2c-5.514 0-10 4.486-10 10s4.486 10 10 10 10-4.486 10-10-4.486-10-10-10z"/></svg>

<svg xmlns="http://www.w3.org/2000/svg" viewBox="0 0 50 50">
    <path fill="white" d="M 15 2 C 7.832 2 2 7.832 2 15 L 2 35 C 2 42.168 7.832 48 15 48 L 35 48 C 42.168 48 48 42.168 48 35 L 48 15 C 48 7.832 42.168 2 35 2 L 15 2 z M 38 10 C 39.105 10 40 10.895 40 12 C 40 13.105 39.105 14 38 14 C 36.895 14 36 13.105 36 12 C 36 10.895 36.895 10 38 10 z M 25 13 C 31.617 13 37 18.383 37 25 C 37 31.617 31.617 37 25 37 C 18.383 37 13 31.617 13 25 C 13 18.383 18.383 13 25 13 z M 25 15 C 19.486 15 15 19.486 15 25 C 15 30.514 19.486 35 25 35 C 30.514 35 35 30.514 35 25 C 35 19.486 30.514 15 25 15 z"></path>
</svg>
